X:93
T:Trip to Plymouth, A
M:C |
L:1/8
B:Thompson's Compleat Collection of 200 Favourite Country Dances, vol. 2 (London, 1765)
Z:Transcribed and edited by Flynn Titford-Mock, 2007
Z:abc's:AK/Fiddler's Companion
K:D
[D2A2f2] ag fgeg | fdec d(AA)F | [D2A2f2] ag fgeg | fdec d2D2 :|
|: DFAd fdec | d(AA)F G(EE)G | FadA fdec | dFGE [D4A4f4] :|

